public/pieces/california/bN.svg

<svg height="100" viewBox="-50 -92.5 398.041 510.02" width="100" xmlns="http://www.w3.org/2000/svg" xmlns:xlink="http://www.w3.org/1999/xlink"><clipPath id="a"><path d="m0 0h308.039062v395.019531h-308.039062zm0 0"/></clipPath><g transform="translate(0 -20)"><path d="m39.136719 363.308594c27.300781 8.164062 66.953125 16.753906 115.164062 16.265625 44.40625-.453125 81.167969-8.457031 107.273438-16.265625-.460938-1.675782-1.167969-4.519532-1.960938-8.054688-2.996093-13.320312-7.414062-41.417968 1.960938-71.074218 12.855469-40.664063 45.925781-91.261719 23.519531-165.949219-23.738281-79.128907-134.40625-102.804688-134.40625-102.804688l1.804688 37.046875-129.273438 93.710938c-8.203125 5.945312-10.195312 17.285156-4.605469 25.730468 2.652344 4.007813 5.398438 8.539063 7.722657 13.191407 2.28125 4.558593 13.035156 21.089843 19.710937 25.390625 5.414063 3.492187 12.390625 3.277344 17.628906-.472656 7.957031-5.695313 17.949219-18.371094 45.960938-15.660157 74.09375 12.648438 92.554687-27.765625 92.554687-27.765625s-11.746094 24.125-59.527344 46.585938c-49.808593 19.105468-82.339843 51.632812-98.886718 106.6875-7.894532 26.257812-4.640625 43.4375-4.640625 43.4375" fill="#4d4d4d"/><path d="m27.363281 179.964844 156.089844-85.554688s18.511719-9.253906 9.253906-27.765625c-4.136719-8.277343-35.765625-44.023437-35.765625-44.023437v37.023437l-138.832031 101.808594zm0 0" fill="#808080"/><path d="m215.558594 173.796875c-31.878906 53.472656-70.101563 81.402344-91.699219 106.082031-18.03125 20.609375-31.027344 69.433594-30 90 .621094 12.367188-51.070313-9.945312-51.070313-9.945312l13.371094-63.761719 27.765625-52.445313 45.25-32.910156zm0 0" fill="#808080"/><g clip-path="url(#a)"><path d="m53.941406 351.472656c32.699219 8.757813 66.34375 13.035156 100.203125 12.675782 30.082031-.304688 60-4.257813 89.136719-11.757813-3.523438-18.964844-5.113281-45.34375 3.585938-72.859375 2.738281-8.664062 6.222656-17.457031 9.914062-26.765625 14.023438-35.390625 29.917969-75.5 13.539062-130.101563-15.089843-50.296874-72.449218-76.007812-103.171874-86.417968l.753906 15.472656c.253906 5.207031-2.136719 10.1875-6.355469 13.242188l-129.277344 93.710937c-1.484375 1.078125-1.835937 3.15625-.792969 4.726563 3.402344 5.136718 6.3125 10.121093 8.65625 14.8125 2.078126 4.15625 10.75 16.675781 14.296876 19.335937.082031.03125.195312-.015625.269531-.066406.796875-.574219 1.820312-1.40625 3-2.371094 8.144531-6.644531 23.296875-19.011719 53.421875-16.101563.371094.035157.742187.085938 1.109375.148438 45.761719 7.8125 65.5625-6.710938 72.691406-14.640625 2.488281-3.046875 3.496094-4.871094 3.53125-4.933594-.09375.171875-.132813.261719-.132813.261719l6.84375-.738281c9.445313-1.023438 18.285157 4.8125 21.058594 13.898437-.03125.066406-.085937.183594-.164062.34375-.085938.179688-.21875.441406-.402344.785156-.539062 1.019532-1.464844 2.632813-2.851562 4.632813-6.5625 9.597656-24.019532 29.78125-63.578126 48.378906-.339843.160157-.6875.308594-1.039062.441407-47.34375 18.15625-74.988281 47.988281-89.640625 96.726562-3.429687 11.421875-4.433594 20.800781-4.605469 27.160156m96.40625 43.546875c-39.15625 0-78.03125-5.691406-115.628906-16.929687-5.523438-1.652344-9.667969-6.246094-10.738281-11.910156-.40625-2.136719-3.703125-21.722657 5.023437-50.746094 14.648438-48.722656 41.253906-82.679688 82.824219-105.105469-1.386719-.203125-2.78125-.421875-4.199219-.660156-17.09375-1.535157-23.871094 3.996093-30.421875 9.34375-1.453125 1.1875-2.960937 2.414062-4.550781 3.554687-10.464844 7.492188-24.195312 7.84375-34.96875.894532-11.3125-7.292969-23.675781-28.507813-25.148438-31.457032-1.789062-3.578125-4.074218-7.472656-6.789062-11.574218-10.191406-15.394532-6.496094-35.925782 8.414062-46.734376l122.515626-88.8125-1.402344-28.707031c-.230469-4.785156 1.769531-9.40625 5.417968-12.503906 3.652344-3.105469 8.539063-4.332031 13.21875-3.332031 4.882813 1.042968 119.894532 26.585937 145.957032 113.457031 19.457031 64.867187-.117188 114.265625-14.410156 150.332031-3.480469 8.785156-6.769532 17.082032-9.175782 24.703125-8.027344 25.390625-4.464844 50.398438-1.621094 63.042969.960938 4.289062 1.609376 6.699219 1.785157 7.335938 2.226562 8.089843-2.414063 16.476562-10.453125 18.878906-36.242188 10.835937-73.769532 16.527344-111.539063 16.910156-1.367187.011719-2.742187.019531-4.109375.019531"/></g><path d="m-.00119375.001475c23.66406275-7.109375 58.17968775-14.613281 100.16796875-14.058594 37.757813.496094 69.046875 7.347656 91.382813 14.058594" style="fill:#fff;stroke-width:30;stroke-linecap:round;stroke-linejoin:round;stroke:#000;stroke-miterlimit:10" transform="matrix(1 0 0 -1 55.0051 312.0796)"/><path d="m169.683594 113.578125c0 8.375-6.789063 15.164063-15.164063 15.164063s-15.164062-6.789063-15.164062-15.164063 6.789062-15.160156 15.164062-15.160156 15.164063 6.785156 15.164063 15.160156"/></g></svg>

<?xml version="1.0" encoding="UTF-8"?>
<svg xmlns="http://www.w3.org/2000/svg" xmlns:xlink="http://www.w3.org/1999/xlink" width="100" height="100" viewBox="-50 -92.5 398.041 510.02" version="1.1">
<defs>
<clipPath id="clip1">
  <path d="M 0 0 L 308.039062 0 L 308.039062 395.019531 L 0 395.019531 Z M 0 0 "/>
</clipPath>
</defs>
<g id="surface1" transform="translate(0 -20)">
<path style=" stroke:none;fill-rule:nonzero;fill:rgb(30.195618%,30.195618%,30.195618%);fill-opacity:1;" d="M 39.136719 363.308594 C 66.4375 371.472656 106.089844 380.0625 154.300781 379.574219 C 198.707031 379.121094 235.46875 371.117188 261.574219 363.308594 C 261.113281 361.632812 260.40625 358.789062 259.613281 355.253906 C 256.617188 341.933594 252.199219 313.835938 261.574219 284.179688 C 274.429688 243.515625 307.5 192.917969 285.09375 118.230469 C 261.355469 39.101562 150.6875 15.425781 150.6875 15.425781 L 152.492188 52.472656 L 23.21875 146.183594 C 15.015625 152.128906 13.023438 163.46875 18.613281 171.914062 C 21.265625 175.921875 24.011719 180.453125 26.335938 185.105469 C 28.617188 189.664062 39.371094 206.195312 46.046875 210.496094 C 51.460938 213.988281 58.4375 213.773438 63.675781 210.023438 C 71.632812 204.328125 81.625 191.652344 109.636719 194.363281 C 183.730469 207.011719 202.191406 166.597656 202.191406 166.597656 C 202.191406 166.597656 190.445312 190.722656 142.664062 213.183594 C 92.855469 232.289062 60.324219 264.816406 43.777344 319.871094 C 35.882812 346.128906 39.136719 363.308594 39.136719 363.308594 "/>
<path style=" stroke:none;fill-rule:nonzero;fill:rgb(50.196838%,50.196838%,50.196838%);fill-opacity:1;" d="M 27.363281 179.964844 L 183.453125 94.410156 C 183.453125 94.410156 201.964844 85.15625 192.707031 66.644531 C 188.570312 58.367188 156.941406 22.621094 156.941406 22.621094 L 156.941406 59.644531 L 18.109375 161.453125 Z M 27.363281 179.964844 "/>
<path style=" stroke:none;fill-rule:nonzero;fill:rgb(50.196838%,50.196838%,50.196838%);fill-opacity:1;" d="M 215.558594 173.796875 C 183.679688 227.269531 145.457031 255.199219 123.859375 279.878906 C 105.828125 300.488281 92.832031 349.3125 93.859375 369.878906 C 94.480469 382.246094 42.789062 359.933594 42.789062 359.933594 L 56.160156 296.171875 L 83.925781 243.726562 L 129.175781 210.816406 Z M 215.558594 173.796875 "/>
<g clip-path="url(#clip1)" clip-rule="nonzero">
<path style=" stroke:none;fill-rule:nonzero;fill:rgb(0%,0%,0%);fill-opacity:1;" d="M 53.941406 351.472656 C 86.640625 360.230469 120.285156 364.507812 154.144531 364.148438 C 184.226562 363.84375 214.144531 359.890625 243.28125 352.390625 C 239.757812 333.425781 238.167969 307.046875 246.867188 279.53125 C 249.605469 270.867188 253.089844 262.074219 256.78125 252.765625 C 270.804688 217.375 286.699219 177.265625 270.320312 122.664062 C 255.230469 72.367188 197.871094 46.65625 167.148438 36.246094 L 167.902344 51.71875 C 168.15625 56.925781 165.765625 61.90625 161.546875 64.960938 L 32.269531 158.671875 C 30.785156 159.75 30.433594 161.828125 31.476562 163.398438 C 34.878906 168.535156 37.789062 173.519531 40.132812 178.210938 C 42.210938 182.367188 50.882812 194.886719 54.429688 197.546875 C 54.511719 197.578125 54.625 197.53125 54.699219 197.480469 C 55.496094 196.90625 56.519531 196.074219 57.699219 195.109375 C 65.84375 188.464844 80.996094 176.097656 111.121094 179.007812 C 111.492188 179.042969 111.863281 179.09375 112.230469 179.15625 C 157.992188 186.96875 177.792969 172.445312 184.921875 164.515625 C 187.410156 161.46875 188.417969 159.644531 188.453125 159.582031 C 188.359375 159.753906 188.320312 159.84375 188.320312 159.84375 L 195.164062 159.105469 C 204.609375 158.082031 213.449219 163.917969 216.222656 173.003906 C 216.191406 173.070312 216.136719 173.1875 216.058594 173.347656 C 215.972656 173.527344 215.839844 173.789062 215.65625 174.132812 C 215.117188 175.152344 214.191406 176.765625 212.804688 178.765625 C 206.242188 188.363281 188.785156 208.546875 149.226562 227.144531 C 148.886719 227.304688 148.539062 227.453125 148.1875 227.585938 C 100.84375 245.742188 73.199219 275.574219 58.546875 324.3125 C 55.117188 335.734375 54.113281 345.113281 53.941406 351.472656 M 150.347656 395.019531 C 111.191406 395.019531 72.316406 389.328125 34.71875 378.089844 C 29.195312 376.4375 25.050781 371.84375 23.980469 366.179688 C 23.574219 364.042969 20.277344 344.457031 29.003906 315.433594 C 43.652344 266.710938 70.257812 232.753906 111.828125 210.328125 C 110.441406 210.125 109.046875 209.90625 107.628906 209.667969 C 90.535156 208.132812 83.757812 213.664062 77.207031 219.011719 C 75.753906 220.199219 74.246094 221.425781 72.65625 222.566406 C 62.191406 230.058594 48.460938 230.410156 37.6875 223.460938 C 26.375 216.167969 14.011719 194.953125 12.539062 192.003906 C 10.75 188.425781 8.464844 184.53125 5.75 180.429688 C -4.441406 165.035156 -0.746094 144.503906 14.164062 133.695312 L 136.679688 44.882812 L 135.277344 16.175781 C 135.046875 11.390625 137.046875 6.769531 140.695312 3.671875 C 144.347656 0.566406 149.234375 -0.660156 153.914062 0.339844 C 158.796875 1.382812 273.808594 26.925781 299.871094 113.796875 C 319.328125 178.664062 299.753906 228.0625 285.460938 264.128906 C 281.980469 272.914062 278.691406 281.210938 276.285156 288.832031 C 268.257812 314.222656 271.820312 339.230469 274.664062 351.875 C 275.625 356.164062 276.273438 358.574219 276.449219 359.210938 C 278.675781 367.300781 274.035156 375.6875 265.996094 378.089844 C 229.753906 388.925781 192.226562 394.617188 154.457031 395 C 153.089844 395.011719 151.714844 395.019531 150.347656 395.019531 "/>
</g>
<path style="fill-rule:nonzero;fill:rgb(100%,100%,100%);fill-opacity:1;stroke-width:30;stroke-linecap:round;stroke-linejoin:round;stroke:rgb(0%,0%,0%);stroke-opacity:1;stroke-miterlimit:10;" d="M -0.00119375 0.001475 C 23.662869 -7.1079 58.178494 -14.611806 100.166775 -14.057119 C 137.924588 -13.561025 169.21365 -6.709463 191.549588 0.001475 " transform="matrix(1,0,0,-1,55.0051,312.0796)"/>
<path style=" stroke:none;fill-rule:nonzero;fill:rgb(0%,0%,0%);fill-opacity:1;" d="M 169.683594 113.578125 C 169.683594 121.953125 162.894531 128.742188 154.519531 128.742188 C 146.144531 128.742188 139.355469 121.953125 139.355469 113.578125 C 139.355469 105.203125 146.144531 98.417969 154.519531 98.417969 C 162.894531 98.417969 169.683594 105.203125 169.683594 113.578125 "/>
</g>
</svg>
